client/public/static/images/ic/ic_template.svg

<svg fill="none" height="48" viewBox="0 0 57 48" width="57" xmlns="http://www.w3.org/2000/svg" xmlns:xlink="http://www.w3.org/1999/xlink"><linearGradient id="a" gradientUnits="userSpaceOnUse" x1=".366519" x2="54.6662" y1="10.0251" y2="16.1738"><stop offset="0" stop-color="#938eff"/><stop offset="1" stop-color="#b0acfb"/></linearGradient><clipPath id="b"><path d="m.585693 0h56v48h-56z"/></clipPath><g clip-path="url(#b)"><rect fill="url(#a)" height="34.2793" opacity=".4" rx="5" transform="matrix(.999773 -.102905 .0983729 .986376 .585693 14.1877)" width="52.7787"/><g stroke="#1a202c" stroke-linecap="round"><path d="m46.1667 17v15c0 1.6569-1.2436 3-2.7777 3h-25.2223" stroke-linejoin="round" stroke-width="2"/><path d="m16.1667 15.5714v12.8572c0 1.4201 1.1641 2.5714 2.6 2.5714h20.8c1.436 0 2.6-1.1513 2.6-2.5714v-12.8572c0-1.4201-1.164-2.5714-2.6-2.5714h-11.7371-9.0629c-1.4359 0-2.6 1.1513-2.6 2.5714z" fill="#fafdff" stroke-linejoin="round" stroke-width="3"/><path d="m18.3532 9.02066.8396-3.02026" stroke-width="2"/><path d="m10.5854 12.0188 3.0017.2534" stroke-width="2"/><path d="m15.1197 9.8271-1.7586-2.43044" stroke-width="2"/></g><circle cx="21.1667" cy="26" fill="#1a202c" r="2"/><rect fill="#1a202c" height="2" rx="1" width="12" x="24.1667" y="25"/><rect fill="#1a202c" height="3" rx="1.5" width="20" x="19.1667" y="17"/></g></svg>

<svg width="57" height="48" viewBox="0 0 57 48" fill="none" xmlns="http://www.w3.org/2000/svg">
<g clip-path="url(#clip0)">
<rect opacity="0.4" width="52.7787" height="34.2793" rx="5" transform="matrix(0.999773 -0.102905 0.0983729 0.986376 0.585693 14.1877)" fill="url(#paint0_linear)"/>
<path d="M46.1667 17L46.1667 32C46.1667 33.6569 44.9231 35 43.389 35L18.1667 35" stroke="#1A202C" stroke-width="2" stroke-linecap="round" stroke-linejoin="round"/>
<path d="M16.1667 15.5714L16.1667 28.4286C16.1667 29.8487 17.3308 31 18.7667 31L39.5667 31C41.0027 31 42.1667 29.8487 42.1667 28.4286L42.1667 15.5714C42.1667 14.1513 41.0027 13 39.5667 13L27.8296 13L18.7667 13C17.3308 13 16.1667 14.1513 16.1667 15.5714Z" fill="#FAFDFF" stroke="#1A202C" stroke-width="3" stroke-linecap="round" stroke-linejoin="round"/>
<path d="M18.3532 9.02066L19.1928 6.0004" stroke="#1A202C" stroke-width="2" stroke-linecap="round"/>
<path d="M10.5854 12.0188L13.5871 12.2722" stroke="#1A202C" stroke-width="2" stroke-linecap="round"/>
<line x1="15.1197" y1="9.8271" x2="13.3611" y2="7.39666" stroke="#1A202C" stroke-width="2" stroke-linecap="round"/>
<circle cx="21.1667" cy="26" r="2" fill="#1A202C"/>
<rect x="24.1667" y="25" width="12" height="2" rx="1" fill="#1A202C"/>
<rect x="19.1667" y="17" width="20" height="3" rx="1.5" fill="#1A202C"/>
</g>
<defs>
<linearGradient id="paint0_linear" x1="0.366519" y1="10.0251" x2="54.6662" y2="16.1738" gradientUnits="userSpaceOnUse">
<stop stop-color="#938EFF"/>
<stop offset="1" stop-color="#B0ACFB"/>
</linearGradient>
<clipPath id="clip0">
<rect width="56" height="48" fill="white" transform="translate(0.585693)"/>
</clipPath>
</defs>
</svg>
